lib/flags/gq-equatorial-guinea.svg

<svg xmlns="http://www.w3.org/2000/svg" fill="none" aria-hidden="true" viewBox="0 0 42 30"><g id="Country=GQ - Equatorial Guinea, Size=sm (36x24)" filter="url(#filter0_dd_91_27967)"><g clip-path="url(#clip0_91_27967)"><g id="flag"><mask id="mask0_91_27967" width="36" height="24" x="3" y="2" maskUnits="userSpaceOnUse" style="mask-type:alpha"><rect id="mask" width="36" height="24" x="3" y="2" fill="white"/></mask><g mask="url(#mask0_91_27967)"><g id="contents"><path id="background" fill="#F7FCFF" fill-rule="evenodd" d="M3 2V26H39V2H3Z" clip-rule="evenodd"/><g id="Object"><mask id="mask1_91_27967" width="36" height="24" x="3" y="2" maskUnits="userSpaceOnUse" style="mask-type:alpha"><path id="background_2" fill="white" fill-rule="evenodd" d="M3 2V26H39V2H3Z" clip-rule="evenodd"/></mask><g mask="url(#mask1_91_27967)"><path id="top n bottom" fill="#009D00" fill-rule="evenodd" d="M3 2V10H39V2H3Z" clip-rule="evenodd"/><path id="top n bottom_2" fill="white" fill-rule="evenodd" d="M3 10V18H39V10H3Z" clip-rule="evenodd"/><path id="top n bottom_3" fill="#F80000" fill-rule="evenodd" d="M3 18V26H39V18H3Z" clip-rule="evenodd"/></g></g><path id="triangle" fill="#0075D5" fill-rule="evenodd" d="M3 2V26L12 14.152L3 2Z" clip-rule="evenodd"/><mask id="mask2_91_27967" width="9" height="24" x="3" y="2" maskUnits="userSpaceOnUse" style="mask-type:alpha"><path id="triangle_2" fill="white" fill-rule="evenodd" d="M3 2V26L12 14.152L3 2Z" clip-rule="evenodd"/></mask><g mask="url(#mask2_91_27967)"/></g><g id="stars"><path id="Star" fill="#FFD500" stroke="black" stroke-width="0.05" d="M19.3892 10.8827L19.3773 10.8851L19.3683 10.8777L19.1311 10.6829L19.1018 10.9651L19.1004 10.9792L19.0872 10.9857L18.8121 11.1228L19.1042 11.2344L19.116 11.2389L19.1187 11.251L19.1819 11.5331L19.3954 11.3169L19.4045 11.3076L19.4172 11.309L19.733 11.3421L19.5718 11.1011L19.5641 11.0896L19.5708 11.0768L19.7042 10.8194L19.3892 10.8827Z"/><path id="Star_2" fill="#FFD500" stroke="black" stroke-width="0.05" d="M20.5142 10.8827L20.5023 10.8851L20.4933 10.8777L20.2561 10.6829L20.2268 10.9651L20.2254 10.9792L20.2122 10.9857L19.9371 11.1228L20.2292 11.2344L20.241 11.2389L20.2437 11.251L20.3069 11.5331L20.5204 11.3169L20.5295 11.3076L20.5422 11.309L20.858 11.3421L20.6968 11.1011L20.6891 11.0896L20.6958 11.0768L20.8292 10.8194L20.5142 10.8827Z"/><path id="Star_3" fill="#FFD500" stroke="black" stroke-width="0.05" d="M21.6392 10.8827L21.6273 10.8851L21.6183 10.8777L21.3811 10.6829L21.3518 10.9651L21.3504 10.9792L21.3372 10.9857L21.0621 11.1228L21.3542 11.2344L21.366 11.2389L21.3687 11.251L21.4319 11.5331L21.6454 11.3169L21.6545 11.3076L21.6672 11.309L21.983 11.3421L21.8218 11.1011L21.8141 11.0896L21.8208 11.0768L21.9542 10.8194L21.6392 10.8827Z"/><path id="Star_4" fill="#FFD500" stroke="black" stroke-width="0.05" d="M22.7642 10.8827L22.7523 10.8851L22.7433 10.8777L22.5061 10.6829L22.4768 10.9651L22.4754 10.9792L22.4622 10.9857L22.1871 11.1228L22.4792 11.2344L22.491 11.2389L22.4937 11.251L22.5569 11.5331L22.7704 11.3169L22.7795 11.3076L22.7922 11.309L23.108 11.3421L22.9468 11.1011L22.9391 11.0896L22.9458 11.0768L23.0792 10.8194L22.7642 10.8827Z"/><path id="Star_5" fill="#FFD500" stroke="black" stroke-width="0.05" d="M23.8892 10.8827L23.8773 10.8851L23.8683 10.8777L23.6311 10.6829L23.6018 10.9651L23.6004 10.9792L23.5872 10.9857L23.3121 11.1228L23.6042 11.2344L23.616 11.2389L23.6187 11.251L23.6819 11.5331L23.8954 11.3169L23.9045 11.3076L23.9172 11.309L24.233 11.3421L24.0718 11.1011L24.0641 11.0896L24.0708 11.0768L24.2042 10.8194L23.8892 10.8827Z"/><path id="Star_6" fill="#FFD500" stroke="black" stroke-width="0.05" d="M25.0142 10.8827L25.0023 10.8851L24.9933 10.8777L24.7561 10.6829L24.7268 10.9651L24.7254 10.9792L24.7122 10.9857L24.4371 11.1228L24.7292 11.2344L24.741 11.2389L24.7437 11.251L24.8069 11.5331L25.0204 11.3169L25.0295 11.3076L25.0422 11.309L25.358 11.3421L25.1968 11.1011L25.1891 11.0896L25.1958 11.0768L25.3292 10.8194L25.0142 10.8827Z"/></g><path id="Rectangle" stroke="#373737" stroke-width="0.1" d="M19.925 12.05H24.325V14.75C24.325 15.965 23.34 16.95 22.125 16.95C20.91 16.95 19.925 15.965 19.925 14.75V12.05Z"/><path id="Path 456" fill="#6F3E1D" fill-rule="evenodd" d="M21.8171 13.9596C21.8171 13.9596 21.5902 16.3249 21.3636 16.4683C21.1371 16.6116 22.4492 16.6832 22.5746 16.5757C22.6999 16.4683 22.0024 14.5408 22.2423 13.9596C22.4823 13.3784 22.8688 13.3313 22.8688 13.3313C22.8688 13.3313 22.3816 13.2398 22.2423 13.4142C22.1031 13.5886 21.6878 13.3313 21.6878 13.3313L21.8171 13.9596Z" clip-rule="evenodd"/><path id="Path 457" fill="#009D29" fill-rule="evenodd" d="M21.7674 13.8263H21.5928C21.5928 13.8263 21.4746 14.237 21.2034 14.0316C20.9323 13.8263 20.5498 13.8987 20.5498 13.8987C20.5498 13.8987 20.5841 13.6529 21.0004 13.5552C21.4167 13.4575 21.5928 12.664 21.5928 12.664C21.5928 12.664 22.1819 12.4691 22.5402 12.8685C22.8986 13.268 23.4035 13.0976 23.4035 13.0976C23.4035 13.0976 23.7725 13.2841 23.588 13.5552C23.4035 13.8263 23.0887 14.0246 22.8145 13.8263C22.5402 13.6279 21.7674 13.8263 21.7674 13.8263Z" clip-rule="evenodd"/></g></g></g></g><defs><filter id="filter0_dd_91_27967" width="42" height="30" x="0" y="0" color-interpolation-filters="sRGB" filterUnits="userSpaceOnUse"><feFlood flood-opacity="0" result="BackgroundImageFix"/><feColorMatrix in="SourceAlpha" result="hardAlpha" values="0 0 0 0 0 0 0 0 0 0 0 0 0 0 0 0 0 0 127 0"/><feOffset dy="1"/><feGaussianBlur stdDeviation="1"/><feColorMatrix values="0 0 0 0 0.0627451 0 0 0 0 0.0941176 0 0 0 0 0.156863 0 0 0 0.06 0"/><feBlend in2="BackgroundImageFix" result="effect1_dropShadow_91_27967"/><feColorMatrix in="SourceAlpha" result="hardAlpha" values="0 0 0 0 0 0 0 0 0 0 0 0 0 0 0 0 0 0 127 0"/><feOffset dy="1"/><feGaussianBlur stdDeviation="1.5"/><feColorMatrix values="0 0 0 0 0.0627451 0 0 0 0 0.0941176 0 0 0 0 0.156863 0 0 0 0.1 0"/><feBlend in2="effect1_dropShadow_91_27967" result="effect2_dropShadow_91_27967"/><feBlend in="SourceGraphic" in2="effect2_dropShadow_91_27967" result="shape"/></filter><clipPath id="clip0_91_27967"><rect width="36" height="24" x="3" y="2" fill="white" rx="2"/></clipPath></defs></svg>

<svg xmlns="http://www.w3.org/2000/svg" fill="none" aria-hidden="true" viewBox="0 0 42 30"><g filter="url(#a)"><g clip-path="url(#b)"><mask id="c" width="36" height="24" x="3" y="2" maskUnits="userSpaceOnUse" style="mask-type:alpha"><path fill="#fff" d="M3 2h36v24H3z"/></mask><g mask="url(#c)"><path fill="#F7FCFF" fill-rule="evenodd" d="M3 2v24h36V2H3Z" clip-rule="evenodd"/><mask id="d" width="36" height="24" x="3" y="2" maskUnits="userSpaceOnUse" style="mask-type:alpha"><path fill="#fff" fill-rule="evenodd" d="M3 2v24h36V2H3Z" clip-rule="evenodd"/></mask><g fill-rule="evenodd" clip-rule="evenodd" mask="url(#d)"><path fill="#009D00" d="M3 2v8h36V2H3Z"/><path fill="#fff" d="M3 10v8h36v-8H3Z"/><path fill="#F80000" d="M3 18v8h36v-8H3Z"/></g><path fill="#0075D5" fill-rule="evenodd" d="M3 2v24l9-11.848L3 2Z" clip-rule="evenodd"/><path fill="#FFD500" stroke="#000" stroke-width=".05" d="m19.39 10.883-.013.002-.009-.007-.237-.195-.03.282v.014l-.014.007-.275.137.292.111.012.005.003.012.063.282.213-.216.01-.01.012.002.316.033-.161-.24-.008-.012.007-.013.133-.258-.315.064Zm1.124 0-.012.002-.009-.007-.237-.195-.03.282v.014l-.014.007-.275.137.292.111.012.005.003.012.063.282.213-.216.01-.01.012.002.316.033-.161-.24-.008-.012.007-.013.133-.258-.315.064Zm1.126 0-.013.002-.009-.007-.237-.195-.03.282v.014l-.014.007-.275.137.292.111.012.005.003.012.063.282.213-.216.01-.01.012.002.316.033-.161-.24-.008-.012.007-.013.133-.258-.315.064Zm1.124 0-.012.002-.009-.007-.237-.195-.03.282v.014l-.014.007-.275.137.292.111.012.005.003.012.063.282.213-.216.01-.01.012.002.316.033-.161-.24-.008-.012.007-.013.133-.258-.315.064Zm1.126 0-.013.002-.009-.007-.237-.195-.03.282v.014l-.014.007-.275.137.292.111.012.005.003.012.063.282.213-.216.01-.01.012.002.316.033-.161-.24-.008-.012.007-.013.133-.258-.315.064Zm1.124 0-.012.002-.009-.007-.237-.195-.03.282v.014l-.014.007-.275.137.292.111.012.005.003.012.063.282.213-.216.01-.01.012.002.316.033-.161-.24-.008-.012.007-.013.133-.258-.315.064Z"/><path stroke="#373737" stroke-width=".1" d="M19.925 12.05h4.4v2.7a2.2 2.2 0 0 1-4.4 0v-2.7Z"/><path fill="#6F3E1D" fill-rule="evenodd" d="M21.817 13.96s-.227 2.365-.453 2.508c-.227.144 1.085.215 1.21.108.126-.108-.572-2.035-.332-2.616.24-.582.627-.629.627-.629s-.487-.091-.627.083c-.139.175-.554-.083-.554-.083l.13.629Z" clip-rule="evenodd"/><path fill="#009D29" fill-rule="evenodd" d="M21.767 13.826h-.174s-.118.411-.39.206c-.27-.206-.653-.133-.653-.133s.034-.246.45-.344c.417-.098.593-.891.593-.891s.589-.195.947.204c.359.4.864.23.864.23s.369.186.184.457c-.184.271-.5.47-.774.271-.274-.198-1.047 0-1.047 0Z" clip-rule="evenodd"/></g></g></g><defs><clipPath id="b"><rect width="36" height="24" x="3" y="2" fill="#fff" rx="2"/></clipPath><filter id="a" width="42" height="30" x="0" y="0" color-interpolation-filters="sRGB" filterUnits="userSpaceOnUse"><feFlood flood-opacity="0" result="BackgroundImageFix"/><feColorMatrix in="SourceAlpha" result="hardAlpha" values="0 0 0 0 0 0 0 0 0 0 0 0 0 0 0 0 0 0 127 0"/><feOffset dy="1"/><feGaussianBlur stdDeviation="1"/><feColorMatrix values="0 0 0 0 0.0627451 0 0 0 0 0.0941176 0 0 0 0 0.156863 0 0 0 0.06 0"/><feBlend in2="BackgroundImageFix" result="effect1_dropShadow_91_27967"/><feColorMatrix in="SourceAlpha" result="hardAlpha" values="0 0 0 0 0 0 0 0 0 0 0 0 0 0 0 0 0 0 127 0"/><feOffset dy="1"/><feGaussianBlur stdDeviation="1.5"/><feColorMatrix values="0 0 0 0 0.0627451 0 0 0 0 0.0941176 0 0 0 0 0.156863 0 0 0 0.1 0"/><feBlend in2="effect1_dropShadow_91_27967" result="effect2_dropShadow_91_27967"/><feBlend in="SourceGraphic" in2="effect2_dropShadow_91_27967" result="shape"/></filter></defs></svg>
